X: 42755
T: White Joak
R: jig
M: 6/8
K: Dmajor
|:d2d fed|dcB A2G/F/|B2B Bcd|A2F DEF|G3 BAG|FGE D3:|
|:A2A ABc|def e3|A2A ABc|def e2dc|B2d A2d|
F2d F>GA|B2B Bcd|A2F DEF|G3 BAG|FGE D3:|

